src/lib/packages/icons/src/assets/filled/stadium-football.svg

<svg xmlns="http://www.w3.org/2000/svg" width="24" height="24" fill="none"><path fill="currentColor" d="M19 9.75h2v4.5h-2c-.14 0-.25-.11-.25-.25v-4c0-.14.11-.25.25-.25ZM13.75 12c0-.96-.79-1.75-1.75-1.75s-1.75.79-1.75 1.75.79 1.75 1.75 1.75 1.75-.79 1.75-1.75Zm-5 0c0-1.53 1.07-2.81 2.5-3.15V5H6C4 5 3 6 3 8v.25h2c.96 0 1.75.79 1.75 1.75v4c0 .96-.79 1.75-1.75 1.75H3V16c0 2 1 3 3 3h5.25v-3.85A3.247 3.247 0 0 1 8.75 12Zm8.5 2v-4c0-.96.79-1.75 1.75-1.75h2V8c0-2-1-3-3-3h-5.25v3.85c1.43.34 2.5 1.62 2.5 3.15 0 1.53-1.07 2.81-2.5 3.15V19H18c2 0 3-1 3-3v-.25h-2c-.96 0-1.75-.79-1.75-1.75Zm-12 0v-4c0-.14-.11-.25-.25-.25H3v4.5h2c.14 0 .25-.11.25-.25Z"/></svg>

<svg width="24" height="24" viewBox="0 0 24 24" fill="none" xmlns="http://www.w3.org/2000/svg">
<path d="M19 9.75H21V14.25H19C18.86 14.25 18.75 14.14 18.75 14V10C18.75 9.86 18.86 9.75 19 9.75ZM13.75 12C13.75 11.04 12.96 10.25 12 10.25C11.04 10.25 10.25 11.04 10.25 12C10.25 12.96 11.04 13.75 12 13.75C12.96 13.75 13.75 12.96 13.75 12ZM8.75 12C8.75 10.47 9.82 9.19001 11.25 8.85001V5H6C4 5 3 6 3 8V8.25H5C5.96 8.25 6.75 9.04 6.75 10V14C6.75 14.96 5.96 15.75 5 15.75H3V16C3 18 4 19 6 19H11.25V15.15C9.82 14.81 8.75 13.53 8.75 12ZM17.25 14V10C17.25 9.04 18.04 8.25 19 8.25H21V8C21 6 20 5 18 5H12.75V8.85001C14.18 9.19001 15.25 10.47 15.25 12C15.25 13.53 14.18 14.81 12.75 15.15V19H18C20 19 21 18 21 16V15.75H19C18.04 15.75 17.25 14.96 17.25 14ZM5.25 14V10C5.25 9.86 5.14 9.75 5 9.75H3V14.25H5C5.14 14.25 5.25 14.14 5.25 14Z" fill="currentColor"/>
</svg>
